Pods/ProtonCore-UIFoundations/libraries/UIFoundations/Sources/Assets.xcassets/Images/IconSet/ic-arrow-up-line.imageset/ic-arrow-up-line.svg

<svg width="24" height="24" viewBox="0 0 24 24" fill="none" xmlns="http://www.w3.org/2000/svg">
<path fill-rule="evenodd" clip-rule="evenodd" d="M11.4698 1.72153C11.7626 1.42876 12.2374 1.42876 12.5302 1.72153L18.5302 7.71933C18.8232 8.01217 18.8233 8.48704 18.5304 8.77999C18.2376 9.07294 17.7627 9.07302 17.4698 8.78018L12.7474 4.05958L12.7474 17.2497C12.7474 17.6639 12.4116 17.9997 11.9974 17.9997C11.5832 17.9997 11.2474 17.6639 11.2474 17.2497L11.2474 4.06471L6.53023 8.78018C6.23729 9.07302 5.76241 9.07294 5.46957 8.77999C5.17673 8.48704 5.17682 8.01217 5.46977 7.71933L11.4698 1.72153ZM3 20.2498C3 19.8355 3.33579 19.4998 3.75 19.4998H20.25C20.6642 19.4998 21 19.8355 21 20.2498C21 20.664 20.6642 20.9998 20.25 20.9998H3.75C3.33579 20.9998 3 20.664 3 20.2498Z" fill="#0C0C14"/>
</svg>

<svg xmlns="http://www.w3.org/2000/svg" width="24" height="24" viewBox="0 0 24 24">
  <g class="ic-arrow-up-line">
    <path fill-rule="evenodd" d="M11.47 1.722a.75.75 0 0 1 1.06 0l6 5.997a.75.75 0 1 1-1.06 1.061l-4.723-4.72v13.19a.75.75 0 0 1-1.5 0V4.065L6.53 8.78a.75.75 0 1 1-1.06-1.06l6-5.998ZM3 20.25a.75.75 0 0 1 .75-.75h16.5a.75.75 0 1 1 0 1.5H3.75a.75.75 0 0 1-.75-.75Z" class="Icon"/>
  </g>
</svg>
